X:21
T: Wo' as sech dann dee Bauer, S. 15
N: R0045
O: Luxemburg
S: D'Fraen um Kanddaaf an der aler Zeit, Luxemburg 1929]
R: ??]
M: 4/4
L: 1/8
K: C
G2 | c3Bc2d2 | e4c4 |
d4c2B2 | A4z2
G2 | G3GG2B2 | d4d4 |
d4c2B2 | A4z4 |
G3GG2B2 | d2d2d4 |
d2d2B3G | AAA2G4 |
G2B2d3G | A4G2

@@@ Tune index: 8075
